src/assets/volume_active.svg

<svg xmlns="http://www.w3.org/2000/svg" width="24px" height="24px" viewBox="0 0 24 24">
  <g stroke="none" stroke-width="1" fill="none" fill-rule="evenodd">
    <rect x="0" y="0" width="24" height="24"/>
    <path fill="#648fc1" fill-rule="nonzero" d="M21.6568537,17.6568556 C21.3053818,18.0083275 20.7355334,18.0083275 20.3840615,17.6568556 C20.0325896,17.3053838 20.0325896,16.7355353 20.3840615,16.3840634 C22.8053121,13.9628128 22.8053121,10.03719 20.3840615,7.61593945 C20.0325896,7.26446759 20.0325896,6.69461911 20.3840615,6.34314725 C20.7355334,5.99167539 21.3053818,5.99167539 21.6568537,6.34314725 C24.781048,9.46734155 24.781048,14.5326613 21.6568537,17.6568556 Z M19.1112708,15.111267 C18.7597989,15.4627388 18.1899504,15.4627388 17.8384786,15.111267 C17.4870067,14.7597951 17.4870067,14.1899466 17.8384786,13.8384748 C18.8538417,12.8231116 18.8538417,11.1768827 17.8384786,10.1615195 C17.4870067,9.81004765 17.4870067,9.24019916 17.8384786,8.8887273 C18.1899504,8.53725544 18.7597989,8.53725544 19.1112708,8.8887273 C20.8295777,10.6070342 20.8295777,13.3929601 19.1112708,15.111267 Z M5,15 C3.8954305,15 3,14.1045695 3,13 L3,11 C3,9.8954305 3.8954305,9 5,9 L7.76499939,9 L13.2794445,3.69339732 C13.7417494,3.24851695 14.3584048,3 15,3 C15.5522847,3 16,3.44771525 16,4 L16,20 C16,20.5522847 15.5522847,21 15,21 C14.3585404,21 13.742154,20.7508682 13.2808452,20.3051501 L7.79012894,15 L5,15 Z"/>
  </g>
</svg>

<svg xmlns="http://www.w3.org/2000/svg" width="24" height="24"><g fill="none" fill-rule="evenodd"><path d="M0 0h24v24H0z"/><path fill="#648fc1" fill-rule="nonzero" d="M21.66 17.66a.9.9 0 1 1-1.28-1.28 6.2 6.2 0 0 0 0-8.76.9.9 0 1 1 1.28-1.28 8 8 0 0 1 0 11.32zM19.1 15.1a.9.9 0 0 1-1.27-1.27 2.6 2.6 0 0 0 0-3.68.9.9 0 1 1 1.27-1.27 4.4 4.4 0 0 1 0 6.22zM5 15a2 2 0 0 1-2-2v-2c0-1.1.9-2 2-2h2.76l5.52-5.3c.46-.45 1.08-.7 1.72-.7a1 1 0 0 1 1 1v16a1 1 0 0 1-1 1c-.64 0-1.26-.25-1.72-.7L7.8 15H5z"/></g></svg>
